dist/assets/img/services/services-group.svg

<svg width="158" height="93" viewBox="0 0 158 93" fill="none" xmlns="http://www.w3.org/2000/svg">
<path d="M154.555 70.8191C154.555 60.6402 146.303 52.3887 136.125 52.3887C125.946 52.3887 117.694 60.6402 117.694 70.8191C117.694 80.9979 125.946 89.2494 136.125 89.2494C146.303 89.2494 154.555 80.9979 154.555 70.8191Z" fill="#FEF4FF"/>
<path d="M132.147 75.3977H132.647V74.8977H132.147V75.3977ZM132.147 78.6073H131.647C131.647 78.7967 131.754 78.9698 131.923 79.0545C132.093 79.1392 132.295 79.121 132.447 79.0074L132.147 78.6073ZM136.429 75.3977V74.8977H136.263L136.13 74.9976L136.429 75.3977ZM133.218 67.4085H132.718V68.4085H133.218V67.4085ZM139.641 68.4085H140.141V67.4085H139.641V68.4085ZM133.218 70.6181H132.718V71.6181H133.218V70.6181ZM137.5 71.6181H138V70.6181H137.5V71.6181ZM131.647 75.3977V78.6073H132.647V75.3977H131.647ZM132.447 79.0074L136.729 75.7978L136.13 74.9976L131.847 78.2073L132.447 79.0074ZM136.429 75.8977H142.853V74.8977H136.429V75.8977ZM142.853 75.8977C143.721 75.8977 144.424 75.1959 144.424 74.3278H143.424C143.424 74.643 143.169 74.8977 142.853 74.8977V75.8977ZM144.424 74.3278V64.6988H143.424V74.3278H144.424ZM144.424 64.6988C144.424 63.8307 143.721 63.1289 142.853 63.1289V64.1289C143.169 64.1289 143.424 64.3836 143.424 64.6988H144.424ZM142.853 63.1289H130.006V64.1289H142.853V63.1289ZM130.006 63.1289C129.138 63.1289 128.435 63.8307 128.435 64.6988H129.435C129.435 64.3836 129.69 64.1289 130.006 64.1289V63.1289ZM128.435 64.6988V74.3278H129.435V64.6988H128.435ZM128.435 74.3278C128.435 75.1959 129.138 75.8977 130.006 75.8977V74.8977C129.69 74.8977 129.435 74.643 129.435 74.3278H128.435ZM130.006 75.8977H132.147V74.8977H130.006V75.8977ZM133.218 68.4085H139.641V67.4085H133.218V68.4085ZM133.218 71.6181H137.5V70.6181H133.218V71.6181Z" fill="black"/>
<path d="M157.306 70.689C157.306 58.9198 147.765 49.3789 135.996 49.3789C124.227 49.3789 114.686 58.9198 114.686 70.689C114.686 82.4583 124.227 91.9992 135.996 91.9992C147.765 91.9992 157.306 82.4583 157.306 70.689Z" stroke="#14161D"/>
<path d="M104.434 1H69.6464C67.8015 1 66.3059 2.4956 66.3059 4.34051V39.1279C66.3059 40.9728 67.8015 42.4684 69.6464 42.4684H104.434C106.279 42.4684 107.774 40.9728 107.774 39.1279V4.34051C107.774 2.4956 106.279 1 104.434 1Z" stroke="#14161D"/>
<path d="M39.1279 25.623H4.34051C2.4956 25.623 1 27.1186 1 28.9636V63.7509C1 65.5958 2.4956 67.0914 4.34051 67.0914H39.1279C40.9728 67.0914 42.4684 65.5958 42.4684 63.7509V28.9636C42.4684 27.1186 40.9728 25.623 39.1279 25.623Z" stroke="#14161D"/>
<path d="M36.6952 28.835H7.05774C5.48595 28.835 4.21176 30.1092 4.21176 31.6809V61.3184C4.21176 62.8902 5.48595 64.1644 7.05774 64.1644H36.6952C38.267 64.1644 39.5412 62.8902 39.5412 61.3184V31.6809C39.5412 30.1092 38.267 28.835 36.6952 28.835Z" fill="#FEF4FF"/>
<path d="M69.9922 8.94758C69.9922 6.59367 71.9004 4.68555 74.2542 4.68555H99.8264C102.18 4.68555 104.088 6.59367 104.088 8.94758V23.8647C104.088 26.218 102.18 28.1267 99.8264 28.1267H74.2542C71.9004 28.1267 69.9922 26.218 69.9922 23.8647V8.94758Z" fill="#FEF4FF"/>
<path d="M17.8082 40.397V38.3629C17.8082 37.614 18.4154 37.0068 19.1643 37.0068H21.1984M27.9788 37.0068H30.0129C30.7619 37.0068 31.369 37.614 31.369 38.3629V40.397M22.5545 37.0068H26.6227M27.9788 50.5676H30.0129C30.7619 50.5676 31.369 49.9605 31.369 49.2115V47.1774M31.369 41.7531V45.8213M15.7741 42.4312H13.74C12.991 42.4312 12.3839 43.0383 12.3839 43.7872V45.8213M12.3839 52.6017V54.6359C12.3839 55.3848 12.991 55.9919 13.74 55.9919H15.7741M12.3839 47.1774V51.2457M22.5545 55.9919H24.5886C25.3376 55.9919 25.9447 55.3848 25.9447 54.6359V52.6017M17.1302 55.9919H21.1984M17.8082 42.4312V50.5676H25.9447V42.4312H17.8082Z" stroke="black"/>
<path fill-rule="evenodd" clip-rule="evenodd" d="M83.577 36.1192C84.0183 36.1192 84.3761 35.7621 84.3761 35.3209C84.3761 34.8797 84.0183 34.5215 83.577 34.5215C83.1356 34.5215 82.7778 34.8797 82.7778 35.3209C82.7778 35.7621 83.1356 36.1192 83.577 36.1192ZM86.7735 36.1192C87.2148 36.1192 87.5726 35.7621 87.5726 35.3209C87.5726 34.8797 87.2148 34.5215 86.7735 34.5215C86.3321 34.5215 85.9744 34.8797 85.9744 35.3209C85.9744 35.7621 86.3321 36.1192 86.7735 36.1192ZM90.7691 35.3209C90.7691 35.7621 90.4114 36.1192 89.9701 36.1192C89.5287 36.1192 89.1709 35.7621 89.1709 35.3209C89.1709 34.8797 89.5287 34.5215 89.9701 34.5215C90.4114 34.5215 90.7691 34.8797 90.7691 35.3209Z" fill="#7F7ADA"/>
<path d="M94.4985 11.0801L99.826 16.5375L94.4985 21.7351" stroke="#3980FF" stroke-linecap="round" stroke-linejoin="round"/>
<path d="M79.5816 11.0801L74.2542 16.5375L79.5816 21.7351" stroke="#3980FF" stroke-linecap="round" stroke-linejoin="round"/>
<path d="M86.4642 49.9551C86.5967 61.5697 84.4483 78.3839 107.268 78.6431" stroke="#7F7ADA" stroke-linecap="round" stroke-dasharray="2 3"/>
<path d="M23.4864 20.2705C23.6159 15.0693 21.5156 7.53951 43.8235 7.42345H57.7412" stroke="#3980FF" stroke-linecap="round" stroke-dasharray="2 3"/>
</svg>

<svg width="158" height="93" fill="none" xmlns="http://www.w3.org/2000/svg"><path d="M154.555 70.82c0-10.18-8.252-18.431-18.43-18.431-10.179 0-18.431 8.251-18.431 18.43s8.252 18.43 18.431 18.43c10.178 0 18.43-8.251 18.43-18.43z" fill="#FEF4FF"/><path d="M132.147 75.398h.5v-.5h-.5v.5zm0 3.21h-.5a.5.5 0 00.8.4l-.3-.4zm4.282-3.21v-.5h-.166l-.133.1.299.4zm-3.211-7.99h-.5v1h.5v-1zm6.423 1h.5v-1h-.5v1zm-6.423 2.21h-.5v1h.5v-1zm4.282 1h.5v-1h-.5v1zm-5.853 3.78v3.21h1v-3.21h-1zm.8 3.61l4.282-3.21-.599-.8-4.283 3.21.6.8zm3.982-3.11h6.424v-1h-6.424v1zm6.424 0a1.57 1.57 0 001.571-1.57h-1a.57.57 0 01-.571.57v1zm1.571-1.57v-9.63h-1v9.63h1zm0-9.63a1.57 1.57 0 00-1.571-1.57v1a.57.57 0 01.571.57h1zm-1.571-1.57h-12.847v1h12.847v-1zm-12.847 0a1.57 1.57 0 00-1.571 1.57h1a.57.57 0 01.571-.57v-1zm-1.571 1.57v9.63h1v-9.63h-1zm0 9.63c0 .868.703 1.57 1.571 1.57v-1a.57.57 0 01-.571-.57h-1zm1.571 1.57h2.141v-1h-2.141v1zm3.212-7.49h6.423v-1h-6.423v1zm0 3.21h4.282v-1h-4.282v1z" fill="#000"/><path d="M157.306 70.689c0-11.77-9.541-21.31-21.31-21.31-11.769 0-21.31 9.54-21.31 21.31s9.541 21.31 21.31 21.31c11.769 0 21.31-9.54 21.31-21.31zM104.434 1H69.646a3.34 3.34 0 00-3.34 3.34v34.788a3.34 3.34 0 003.34 3.34h34.788a3.34 3.34 0 003.34-3.34V4.34a3.34 3.34 0 00-3.34-3.34zM39.128 25.623H4.34A3.34 3.34 0 001 28.963v34.788a3.34 3.34 0 003.34 3.34h34.788a3.34 3.34 0 003.34-3.34V28.964a3.34 3.34 0 00-3.34-3.341z" stroke="#14161D"/><path d="M36.695 28.835H7.058a2.846 2.846 0 00-2.846 2.846v29.637a2.846 2.846 0 002.846 2.846h29.637a2.846 2.846 0 002.846-2.846V31.681a2.846 2.846 0 00-2.846-2.846zM69.992 8.948a4.262 4.262 0 014.262-4.262h25.572a4.262 4.262 0 014.262 4.262v14.917a4.262 4.262 0 01-4.262 4.262H74.254a4.262 4.262 0 01-4.262-4.262V8.948z" fill="#FEF4FF"/><path d="M17.808 40.397v-2.034c0-.749.607-1.356 1.356-1.356h2.034m6.78 0h2.035c.749 0 1.356.607 1.356 1.356v2.034m-8.814-3.39h4.068m1.356 13.56h2.034c.749 0 1.356-.606 1.356-1.355v-2.035m0-5.424v4.068m-15.595-3.39H13.74c-.749 0-1.356.607-1.356 1.356v2.034m0 6.78v2.035c0 .749.607 1.356 1.356 1.356h2.034m-3.39-8.815v4.069m10.17 4.746h2.035c.749 0 1.356-.607 1.356-1.356v-2.034m-8.815 3.39h4.068m-3.39-13.56v8.136h8.137V42.43h-8.137z" stroke="#000"/><path fill-rule="evenodd" clip-rule="evenodd" d="M83.577 36.12a.799.799 0 10.001-1.598.799.799 0 00-.001 1.597zm3.197 0a.799.799 0 100-1.598.799.799 0 000 1.597zm3.995-.8a.798.798 0 11-1.597 0 .798.798 0 011.597 0z" fill="#7F7ADA"/><path d="M94.499 11.08l5.327 5.458-5.327 5.197M79.582 11.08l-5.328 5.458 5.328 5.197" stroke="#3980FF" stroke-linecap="round" stroke-linejoin="round"/><path d="M86.464 49.955c.133 11.615-2.016 28.429 20.804 28.688" stroke="#7F7ADA" stroke-linecap="round" stroke-dasharray="2 3"/><path d="M23.486 20.27c.13-5.2-1.97-12.73 20.338-12.847H57.74" stroke="#3980FF" stroke-linecap="round" stroke-dasharray="2 3"/></svg>
